X:1
T:20 Mélodies
T:Noël d'Irlande
T:20 Mélodies
T:7. Noël d'Irlande
T:Augusta Mary Anne Holmès
T:Augusta Mary Anne Holmès
T:OpenScore (CC0)
T:OpenScore (CC0)
T:OpenScore (CC0)
C:Augusta Mary Anne Holmès
Z:Augusta Mary Anne Holmès
Z:OpenScore (CC0)
%%score 1 { ( 2 3 5 ) | ( 4 6 ) }
L:1/8
Q:1/4=60
M:3/4
K:F
V:1 treble nm="Chant\nVoice"
V:2 treble nm="Piano"
V:3 treble 
V:5 treble 
V:4 bass 
V:6 bass 
V:1
"^Largo" z6 | z2 z2 z3/2!pp! A/ | c4- c z/ A/ | c4- c z | (3G A B (G3 A) | A4- A c | f d c3 A | %7
w: |Rê-|vez, _ rê-|vez, _|En- fants d'Ir- lan- *|de, _ Que|le di- vin No-|
 (3G F G (A4 | D2) E3 F | F4 z z/!p!!<(! A/ | c4- c z/ A/ | c4-!<)! c z | (3G A B (G3 A) | %13
w: ël vous ap- por-|* te du|pain! Rê-|vez, _ rê-|vez, _|que sur la lan- *|
 A2- A z!<(! c3/2 c/!<)! |!>(! (f3 d) c A | (3(GF) G!>)! A4 | D2 E3 F | F4 z z/!p! F/ || %18
w: de _ Vous chauf-|fez _ vos pieds|nus _ aux flam-|mes du sa-|\- pin Rê-|
 G4- G z/!f! G/ | A4- A z |!<(! (3=B c d (B3 c) | c2- c!<)! z!f! c3/2 c/ | (g3 e) d c | %23
w: vez, _ rê-|vez, _|Chan- teurs d'Ir- lan- *|de, _ Que les|temps _ re- vien-|
 (3A c d e4 | (A2 =B3) !^!c | !^!c4 z"^cresc." c | d4- d d | e4- e!f! !^!e | %28
w: dront des Hé- ros|et _ des|Rois! Rê-|vez, _ rê-|\- vez, _ que|
 f3/2 f/ (!^!F2 !^!G2) | !^!A4- A F | f d c3 A | (3G F G A4 | D2 E3 F | F4 z z/!p! A/ || %34
w: Dieu com- man- *|de _ Et|qu'il nous rend la|Harpe, et le Trè-|\- fle, et la|Croix! Rê-|
 c4- c z/!f! A/ | c4- c z | (3G A B (G3 A) | A4!f! c3/2 c/ | (f3 d) c A | (3(GF) G A4 | D2 E3 F | %41
w: vez, _ rê-|vez, _|Mar- tyrs d'Ir- lan- *|\- de, Que le|jour _ est ve-|nu _ de gloi-|re et d'é- qui-|
 G4 z!f! c | d6 |"^cresc." !^!e2 !^!e !^!e !^!e3/2 !^!e/ | (!^!f2 !^!F2) !^!G2 | !^!A4- A!ff! F | %46
w: té! Rê-|\- vez!|Et que No- ël vous|ren- * *|de _ La|
 f3 d c A | (3(GF) G A4 |[Q:1/4=58]"^T""^allarg." D2[Q:1/4=56]"^T" E3[Q:1/4=54]"^T" F | %49
w: for- ce des aï-|eux _ a- vec|la Li- ber-|
[Q:1/4=52]"^T" F4 !fermata!z2[Q:1/4=48]"^T" |] %50
w: té!|
V:2
!pp!"^Largo" [CFAc] z"_M. G." [cfac']2- [cfac'] z | [CFAc] z [cfac']2- [cfac'] z | %2
 [CFAc] z [cfac']2- [cfac'] z | [CEAc] z [ceac']2- [ceac'] z | ([FBd]2 [EBc]4 | %5
 [FAc]) z"_M. G." [cfac']2- [cfac'] z | (fd c4) | [FAd]6 | ([FBd]2 [EBc]4) | %9
 [FAc] z"_M. G." [cfac']2- [cfac'] z |!p! [CEAc] z [ceac']2-"_cresc." [ceac'] z | %11
 [CFAc] z [cfac']2- [cfac'] z | ([FBd]2 [EBc]4) | [FAc] z"_M. G." [cfac']2- [cfac'] z | %14
!>(! (f3 d c2)!>)! | [FAd]6 |!p! ([FBd]2 [EBc]4) | [FAc] z"_M. G." [cfac']2- [cfac'] z || %18
!p! [G,CEG] z [Gceg]2- [Gceg] z | [A,CEA] z"_crescendo" [Acea]2- [Acea] z | ([FA=Bf]2 [E^GBe]4 | %21
 [CEAc]) z"_M. G." [ceac']2- [ceac'] z |!f! [CG]6 | (3:2:2[CA]2 [DAd] [EGe]4 | %24
 [FAf]2 [=B,G=B]3 [CEc] | [CEc] z"_M. G." [cec']2- [cec'] z |"_cresc." z2 [dfbd']2- [dfbd'] z | %27
 z2 [e^g=be']2- [egbe'] z | !^![FAdf]4 !^![Gceg]2 | !^![Acfa] z"_M. G." [ac'f'a']2- [ac'f'a'] z | %30
 [FBf][DFd] [CFc]4 | [DFAd]6 | [DFBd]2 [EBc]3 [FAf] | [FAf] z"_M. G.""^M. D." [faf']2- [faf'] z || %34
 z2"^M. D.""_M. G." [ceac']2- [ceac'] z | z2"^M. D.""_M. G." [cfac']2- [cfac'] z | ([B,DF]2 [CE]4 | %37
 [A,CF]2)"_M. G.""^M. D." [cfac']2- [cfac'] z |!f! ([FBf]3 [DFd] [CFc]2) | [DFAd]6 | %40
 [DFBd]2 [EBce]3 [FAcf] | [Gceg] z [gc'e'g']2- [gc'e'g'] z | [DFBd] z"_M. G." [dfbd']2- [dfbd'] z | %43
"_cresc." !^![E^G=Be]4 !^![EA^ce]2 | !^![FAdf]2 !^![F,A,DF]2 !^![G,CEG]2 | %45
 !^![A,CFA] z !^![Acfa]2- [Acfa] z |!ff! [FBf]3 [DFd][CFc][A,CA] | (3[G,DG][F,F][G,G] [A,CEA]4 | %48
 [DFBd]2 [CEBc]3 [FAcf] | z2 [fac'f']2- [fac'f'] !fermata!z |] %50
V:3
 z2 [CFA]2- [CFA] x | z2 [CFA]2- [CFA] x | z2 [CFA]2- [CFA] x | z2 [EA]2- [EA] x | x6 | %5
 z2 [CFA]2- [CFA] x | !arpeggio![FB]2 F4 | x6 | x6 | z2 [CFA]2- [CFA] x | z2 [EA]2- [EA] x | %11
 z2 [CFA]2- [CFA] x | x6 | z2 [CFA]2- [CFA] x | [FB]4 F2 | x6 | x6 | z2 [CFA]2- [CFA] x || %18
 z2 [G,CE]2- [G,CE] x | z2 [A,CE]2- [A,CE] x | x6 | z2 [A,CEA]2- [A,CEA] x | x6 | x6 | x6 | %25
 z2 [CEG]2- [CEG] x | z2 [B,DFB]2- [B,DFB] x | z2 [E^G=B]2- [EGB] x | x6 | z2 [FAcf]2- [FAcf] x | %30
 x6 | x6 | x6 | x2 [FAc]2- [FAc] x || x2 [A,CEA]2- [A,CEA] x | x2 [CFA]2- [CFA] x | %36
 (3(G,A,B, G,3 A, | z2) [CFA]2- [CFA] x | x6 | x6 | x6 | x6 | z2 [B,DFB]2- [B,DFB] x | x6 | x6 | %45
 x6 | x6 | x6 | x6 | [FAcf]4 z2 |] %50
V:4
"_una corda"!ped! [F,,C,F,]2- [F,,C,F,] z z2!ped-up! |!ped! [F,,C,F,]2- [F,,C,F,] z z2!ped-up! | %2
!ped! [F,,C,F,]2- [F,,C,F,] z z2!ped-up! |!ped! [A,,E,A,]2- [A,,E,A,] z z2!ped-up! | %4
 [G,,G,]2 [C,C]4 | [F,,C,F,]2- [F,,C,F,] z z2 | %6
!ped! (!arpeggio![B,,F,D]B,!ped-up!!ped! [A,,F,A,]4)!ped-up! | D,6 | (G,2 [C,C]4) | %9
!ped! [F,,C,F,]2- [F,,C,F,] z z2!ped-up! |!ped! [A,,E,A,]2- [A,,E,A,] z z2!ped-up! | %11
!ped! [F,,C,F,]2- [F,,C,F,] z z2!ped-up! | (G,2 [C,C]4) |!ped! [F,,C,F,]2- [F,,C,F,] z z2!ped-up! | %14
 (!arpeggio![B,,F,D]3 B, [A,,F,A,]2) | D,6 | (G,2 [C,C]4) | [F,,C,F,]2- [F,,C,F,] z z2 || %18
 [C,,C,]2- [C,,C,] z z2 | A,,2- A,, z z2 | ([D,,D,]2 [E,,E,]4 | [A,,A,]2-) [A,,A,] z z2 | %22
 [E,,E,]6 | (3:2:2[F,,F,]2 [F,,F,] [E,,E,]4 | [D,,D,]2 [G,,G,]3 [C,,C,] | %25
!ped! [C,,C,]2- [C,,C,] z z2!ped-up! |!ped! !^![B,,B,]4 z2!ped-up! |!ped! !^![E,,E,]4 z2!ped-up! | %28
 [D,,D,]4 !^![C,,C,]2 | (3!^![F,,F,]4- [F,,F,] z z2 | !arpeggio![B,,F,D]B, [A,,A,]4 | [D,,D,]6 | %32
 [G,,G,]2 [C,C]3 [F,,F,] |!ped! [F,,F,]4 z2!ped-up! || C4- C z/"^M. D." (A,/ | C4-) C z | %36
 (G,,2 [C,,C,]4) |!ped! [F,,C,F,]2- [F,,C,F,] z z2!ped-up! | (!arpeggio![B,,F,D]3 B, [A,,F,A,]2) | %39
 [D,,D,]6 | [G,,G,]2 [C,,C,]3 [F,,F,] |!ped! z2[K:treble] [CEGc]2- [CEGc]!ped-up! z | %42
[K:bass]!ped! [B,,B,]2- [B,,B,] z z2!ped-up! | !^![E,,E,]4 !^![A,,A,]2 | !^![D,,D,]4 !^![C,,C,]2 | %45
 z2 !^![CF]2- [CF] z | !arpeggio![B,,F,D]3 [B,,B,][A,,A,][F,,F,] | [D,,D,]2 [A,,,A,,]4 | %48
"^allarg." [G,,,G,,]2 [C,,C,]3 [F,,,F,,] |!ped! z2[K:treble] [FAc]2- [FAc] !fermata!z!ped-up! |] %50
V:5
 x6 | x6 | x6 | x6 | x6 | x6 | x6 | x6 | x6 | x6 | x6 | x6 | x6 | x6 | x6 | x6 | x6 | x6 || x6 | %19
 x6 | x6 | x6 | x6 | x6 | x6 | x6 | !^![DFBd]4 x2 | !^![E^G=Be]4 x2 | x6 | x6 | x6 | x6 | x6 | %33
 x6 || x6 | x6 | x6 | x6 | x6 | x6 | x6 | x6 | x6 | x6 | x6 | x6 | x6 | x6 | x6 | x6 |] %50
V:6
 x6 | x6 | x6 | x6 | x6 | x6 | x6 | x6 | x6 | x6 | x6 | x6 | x6 | x6 | x6 | x6 | x6 | x6 || x6 | %19
 x6 | x6 | x6 | x6 | x6 | x6 | x6 | x6 | x6 | x6 | x6 | x6 | x6 | x6 | z2 x3 z/"^M. D."!p! (A,/ || %34
 [A,,E,A,]2-) [A,,E,A,] z z2 | [F,,C,F,]2- [F,,C,F,] z z2 | x6 | x6 | x6 | x6 | x6 | %41
 [C,,C,]4[K:treble] x2 |[K:bass] x6 | x6 | x6 | !^![F,,F,]2- [F,,F,] z z2 | x6 | x6 | x6 | %49
 [F,,,F,,]4[K:treble] z2 |] %50

